X:902
M:C
L:1/8
Q:1/4=250
K:C
e3dc2A2|G2ABc2E2{FE}|D3CA,C3|1D4:|2D6z2||
c3de.gz2|C3DE.Cz2|{B}cBcd c2.ez|C2D2E2F2|
edc2dcA2|G2ABc2E2{FE}|D3CA,C3|D6z2|

